X:1
T:Title
%%score [ ( 1 2 ) ( 3 4 ) ]
L:1/8
Q:1/4=120
M:none
K:A
V:1 treble nm=" "
V:2 treble 
V:3 bass nm="Midi_74"
V:4 bass 
V:1
 E8 | F4 A4 | G8 || A8 | B4 d4 | c4"^Sir George Elvey\n(1816-1893)" B4 | A8 | %7
V:2
 C8 | D4 C2 D2 | E8 || E8 | F4 F4 | E4 D4 | C8 | %7
V:3
 A,8 | A,4 A,4 | B,8 || A,8 | A,4 A,4 | G,4 G,4 | A,8 | %7
V:4
 A,,8 | D,4 F,4 | E,8 || C,8 | D,4 B,,4 | E,4 E,4 | A,,8 | %7

